X:220
T:Polska efter Per Larsson Lindahl
R:sl\"angpolska
A:Sk{\aa}ne
B:SvL Sk 1357
Z:id:hn-sp-220
M:3/4
L:1/16
K:Dm =B
B2 | A2g2 {g}fed^c d3e | A2g2 {g}fed^c d3e | A2g2 f3e e2d2 |
d2^c2 A4 A2 :||: B2 | A2B2 {d}cBA^G B2A2 | A2B2 {d}cBA^G B2A2 |
A2AB ^c2cd e2eg | ^fed^c d4 d2 :|

